X:1
T:More Love to Thee
T:More Love to Thee
T:William H. Doane, pub.1870
T:Elizabeth P. Prentiss, 1856
T:PUBLIC DOMAIN
C:William H. Doane, pub.1870
Z:Elizabeth P. Prentiss, 1856
Z:PUBLIC DOMAIN
%%score 1 ( 2 3 )
L:1/8
Q:1/4=90
M:4/4
K:Ab
V:1 treble nm="Treble"
V:2 bass nm="Bass"
V:3 bass 
V:1
 [CE]4 [DF]2 [CE]2 | [EA]3 [EB] [Ec]4 | [Ec]4 [EB]2 [=DA]2 | [EB]6 z2 | [CE]4 [DF]2 [CE]2 | %5
w: 1.~More love to|Thee, O Christ,|more love to|Thee!|Hear Thou the|
w: 2.~Once earth- ly|joy I craved,|sought peace and|rest;|Now Thee a-|
w: 3.~Let sor- row|do its work,|come grief or|pain;|Sweet are Thy|
w: 4.~Then shall my|lat- est breath|whis- per Thy|praise;|This be the|
 [EA]3 [EB] [Ec]4 | [FB]4 [EA]2 [EG]2 | [EA]6 z2 | [Fd]4 [Ad]2 [Fd]2 | [Ad]3 [Ac] [Ac]4 | %10
w: prayer I make|on bend- ed|knee;|This is my|ear- nest plea:|
w: lone I seek,|give what is|best;|This all my|prayer shall be:|
w: mes- sen- gers,|sweet their re-|frain;|When they can|sing with me:|
w: part- ing cry|my heart shall|raise;|This still its|prayer shall be:|
 [GB]4 [EB]2 [GB]2 | [EB]3 [EA] [EA]4 | [DF]4 [DF]2 [DF]2 | [EA]6 z2 | [FB]4 [EA]2 [EG]2 | %15
w: More love, O|Christ, to Thee;|More love to|Thee,|more love to|
w: More love, O|Christ, to Thee;|More love to|Thee,|more love to|
w: More love, O|Christ, to Thee;|More love to|Thee,|more love to|
w: More love, O|Christ, to Thee;|More love to|Thee,|more love to|
 [EA]6 z2 |] %16
w: Thee!|
w: Thee!|
w: Thee!|
w: Thee!|
V:2
 [A,,A,]4 [D,A,]2 [A,,A,]2 | [C,A,]3 [E,G,] A,4 | A,4 [G,B,]2 [F,B,]2 | [E,G,]6 z2 | %4
 [A,,A,]4 [D,A,]2 [A,,A,]2 | [C,A,]3 [E,G,] A,4 | [D,D]4 [E,C]2 [E,B,]2 | [A,C]6 z2 | %8
 [D,A,]4 [F,D]2 [D,D]2 | [A,F]3 [A,E] [A,E]4 | [E,E]4 [G,B,]2 [E,E]2 | [E,D]3 [A,,C] [A,,C]4 | %12
 [D,A,]4 [D,A,]2 [D,A,]2 | [C,A,]6 z2 | [B,,D]4 [E,C]2 [E,B,]2 | [A,,C]6 z2 |] %16
V:3
 x8 | z4 A,4 | A,4 z4 | x8 | x8 | z4 A,4 | x8 | x8 | x8 | x8 | x8 | x8 | x8 | x8 | x8 | x8 |] %16

